dist/img/mansion.svg

<svg width="100" height="100" viewBox="0 0 100 100" fill="none" xmlns="http://www.w3.org/2000/svg">
<g clip-path="url(#clip0)">
<path d="M2.5341 55H3.3341V83.3333C3.3341 85.1743 4.82648 86.6667 6.66743 86.6667H30.0008V90C28.1598 90 26.6674 91.4924 26.6674 93.3333V96.6667C26.6674 98.5076 28.1598 100 30.0008 100H70.0008C71.8417 100 73.3341 98.5076 73.3341 96.6667V93.3333C73.3341 91.4924 71.8417 90 70.0008 90V86.6667H93.3341C95.175 86.6667 96.6674 85.1743 96.6674 83.3333V55H97.4674C98.564 54.9996 99.5361 54.2947 99.8773 53.2526C100.218 52.2105 99.8514 51.0671 98.9674 50.4183L86.6674 41.4833V27.8333C87.3434 27.3271 87.7181 26.5138 87.6636 25.6711C87.6092 24.8283 87.1329 24.07 86.3974 23.655L75.0008 17.2167V8.33333C74.9972 7.14779 74.362 6.05402 73.3341 5.46333V1.66667C73.3341 0.746192 72.5879 0 71.6674 0C70.747 0 70.0008 0.746192 70.0008 1.66667V5H68.3341V1.66667C68.3341 0.746192 67.5879 0 66.6674 0C65.747 0 65.0008 0.746192 65.0008 1.66667V5.46333C63.9728 6.05402 63.3377 7.14779 63.3341 8.33333V10.6217L51.2324 3.78833C50.4687 3.35636 49.5345 3.35636 48.7708 3.78833L36.6674 10.6217V8.33333C36.6639 7.14779 36.0287 6.05402 35.0008 5.46333V1.66667C35.0008 0.746192 34.2546 0 33.3341 0C32.4136 0 31.6674 0.746192 31.6674 1.66667V5H30.0008V1.66667C30.0008 0.746192 29.2546 0 28.3341 0C27.4136 0 26.6674 0.746192 26.6674 1.66667V5.46333C25.6395 6.05402 25.0043 7.14779 25.0008 8.33333V17.2167L13.6091 23.6567C12.8737 24.0709 12.397 24.8283 12.3415 25.6706C12.2861 26.5128 12.6593 27.3262 13.3341 27.8333V41.4667L1.01743 50.4333C0.144147 51.0877 -0.21278 52.2272 0.131168 53.2629C0.475117 54.2985 1.44285 54.9981 2.5341 55ZM58.3341 70V76.6667H51.6674V61.8333C55.5448 62.6307 58.3291 66.0415 58.3341 70ZM48.3341 76.6667H41.6674V70C41.6724 66.0415 44.4567 62.6307 48.3341 61.8333V76.6667ZM60.0008 80H63.3341V83.3333H36.6674V80H60.0008ZM70.0008 96.6667H30.0008V93.3333H70.0008V96.6667ZM66.6674 90H33.3341V86.6667H66.6674V90ZM93.3341 76.6667H73.3341C72.4136 76.6667 71.6674 77.4129 71.6674 78.3333C71.6674 79.2538 72.4136 80 73.3341 80H93.3341V83.3333H66.6674V80C66.6674 78.159 65.175 76.6667 63.3341 76.6667H61.6674V70C61.6674 63.5567 56.4441 58.3333 50.0008 58.3333C43.5574 58.3333 38.3341 63.5567 38.3341 70V76.6667H36.6674C34.8265 76.6667 33.3341 78.159 33.3341 80V83.3333H6.66743V80H26.6674C27.5879 80 28.3341 79.2538 28.3341 78.3333C28.3341 77.4129 27.5879 76.6667 26.6674 76.6667H6.66743V55H93.3341V76.6667ZM16.6674 28.3333H83.3341V51.6667H16.6674V28.3333ZM95.0108 51.6667H86.6674V45.605L95.0108 51.6667ZM66.6674 8.33333H71.6674V15.3333L66.6674 12.5V8.33333ZM28.3341 8.33333H33.3341V12.5L28.3341 15.3333V8.33333ZM50.0008 6.915L82.0008 25H18.0008L50.0008 6.915ZM13.3341 45.5917V51.6667H4.98743L13.3341 45.5917Z" fill="black"/>
<path d="M16.6667 58.3333H13.3333C11.4924 58.3333 10 59.8256 10 61.6666V71.6666C10 73.5075 11.4924 74.9999 13.3333 74.9999H16.6667C18.5076 74.9999 20 73.5075 20 71.6666V61.6666C20 59.8256 18.5076 58.3333 16.6667 58.3333ZM13.3333 71.6666V61.6666H16.6667V71.6666H13.3333Z" fill="black"/>
<path d="M29.9999 58.3333H26.6666C24.8256 58.3333 23.3333 59.8256 23.3333 61.6666V71.6666C23.3333 73.5075 24.8256 74.9999 26.6666 74.9999H29.9999C31.8409 74.9999 33.3332 73.5075 33.3332 71.6666V61.6666C33.3332 59.8256 31.8409 58.3333 29.9999 58.3333ZM26.6666 71.6666V61.6666H29.9999V71.6666H26.6666Z" fill="black"/>
<path d="M73.3332 58.3333H69.9998C68.1589 58.3333 66.6665 59.8256 66.6665 61.6666V71.6666C66.6665 73.5075 68.1589 74.9999 69.9998 74.9999H73.3332C75.1741 74.9999 76.6665 73.5075 76.6665 71.6666V61.6666C76.6665 59.8256 75.1741 58.3333 73.3332 58.3333ZM69.9998 71.6666V61.6666H73.3332V71.6666H69.9998Z" fill="black"/>
<path d="M79.9998 61.6666V71.6666C79.9998 73.5075 81.4921 74.9999 83.3331 74.9999H86.6664C88.5074 74.9999 89.9998 73.5075 89.9998 71.6666V61.6666C89.9998 59.8256 88.5074 58.3333 86.6664 58.3333H83.3331C81.4921 58.3333 79.9998 59.8256 79.9998 61.6666ZM86.6664 71.6666H83.3331V61.6666H86.6664V71.6666Z" fill="black"/>
<path d="M26.6664 31.6667H23.3331C21.4921 31.6667 19.9998 33.1591 19.9998 35.0001V45.0001C19.9998 46.841 21.4921 48.3334 23.3331 48.3334H26.6664C28.5074 48.3334 29.9998 46.841 29.9998 45.0001V35.0001C29.9998 33.1591 28.5074 31.6667 26.6664 31.6667ZM23.3331 45.0001V35.0001H26.6664V45.0001H23.3331Z" fill="black"/>
<path d="M39.9999 31.6667H36.6666C34.8256 31.6667 33.3333 33.1591 33.3333 35.0001V45.0001C33.3333 46.841 34.8256 48.3334 36.6666 48.3334H39.9999C41.8409 48.3334 43.3332 46.841 43.3332 45.0001V35.0001C43.3332 33.1591 41.8409 31.6667 39.9999 31.6667ZM36.6666 45.0001V35.0001H39.9999V45.0001H36.6666Z" fill="black"/>
<path d="M63.3332 31.6667H59.9998C58.1589 31.6667 56.6665 33.1591 56.6665 35.0001V45.0001C56.6665 46.841 58.1589 48.3334 59.9998 48.3334H63.3332C65.1741 48.3334 66.6665 46.841 66.6665 45.0001V35.0001C66.6665 33.1591 65.1741 31.6667 63.3332 31.6667ZM59.9998 45.0001V35.0001H63.3332V45.0001H59.9998Z" fill="black"/>
<path d="M76.6667 31.6667H73.3333C71.4924 31.6667 70 33.1591 70 35.0001V45.0001C70 46.841 71.4924 48.3334 73.3333 48.3334H76.6667C78.5076 48.3334 80 46.841 80 45.0001V35.0001C80 33.1591 78.5076 31.6667 76.6667 31.6667ZM73.3333 45.0001V35.0001H76.6667V45.0001H73.3333Z" fill="black"/>
</g>
<defs>
<clipPath id="clip0">
<rect width="100" height="100" fill="white"/>
</clipPath>
</defs>
</svg>

<svg width="100" height="100" fill="none" xmlns="http://www.w3.org/2000/svg"><g clip-path="url(#a)" fill="#000"><path d="M2.534 55h.8v28.333a3.333 3.333 0 0 0 3.333 3.334h23.334V90a3.333 3.333 0 0 0-3.334 3.333v3.334A3.333 3.333 0 0 0 30.001 100h40a3.333 3.333 0 0 0 3.333-3.333v-3.334A3.333 3.333 0 0 0 70.001 90v-3.333h23.333a3.333 3.333 0 0 0 3.333-3.334V55h.8a2.537 2.537 0 0 0 1.5-4.582l-12.3-8.935v-13.65a2.5 2.5 0 0 0-.27-4.178l-11.396-6.438V8.333a3.322 3.322 0 0 0-1.667-2.87V1.667a1.667 1.667 0 0 0-3.333 0V5h-1.667V1.667a1.667 1.667 0 0 0-3.333 0v3.796a3.322 3.322 0 0 0-1.667 2.87v2.289L51.232 3.788a2.5 2.5 0 0 0-2.461 0l-12.104 6.834V8.333a3.321 3.321 0 0 0-1.666-2.87V1.667a1.667 1.667 0 0 0-3.334 0V5h-1.666V1.667a1.667 1.667 0 0 0-3.334 0v3.796a3.321 3.321 0 0 0-1.666 2.87v8.884l-11.392 6.44a2.5 2.5 0 0 0-.275 4.176v13.634L1.017 50.433A2.537 2.537 0 0 0 2.534 55Zm55.8 15v6.667h-6.667V61.833A8.348 8.348 0 0 1 58.334 70Zm-10 6.667h-6.667V70a8.348 8.348 0 0 1 6.667-8.167v14.834ZM60.001 80h3.333v3.333H36.667V80h23.334Zm10 16.667H30v-3.334h40v3.334ZM66.667 90H33.334v-3.333h33.333V90Zm26.667-13.333h-20a1.667 1.667 0 1 0 0 3.333h20v3.333H66.667V80a3.333 3.333 0 0 0-3.333-3.333h-1.667V70c0-6.443-5.223-11.667-11.666-11.667-6.444 0-11.667 5.224-11.667 11.667v6.667h-1.667A3.333 3.333 0 0 0 33.334 80v3.333H6.667V80h20a1.667 1.667 0 1 0 0-3.333h-20V55h86.667v21.667ZM16.667 28.333h66.667v23.334H16.667V28.333Zm78.344 23.334h-8.344v-6.062l8.344 6.062ZM66.667 8.333h5v7l-5-2.833V8.333Zm-38.333 0h5V12.5l-5 2.833v-7Zm21.667-1.418L82 25H18L50 6.915ZM13.334 45.592v6.075H4.987l8.347-6.075Z"/><path d="M16.667 58.333h-3.334A3.333 3.333 0 0 0 10 61.667v10A3.333 3.333 0 0 0 13.333 75h3.334A3.333 3.333 0 0 0 20 71.667v-10a3.333 3.333 0 0 0-3.333-3.334Zm-3.334 13.334v-10h3.334v10h-3.334ZM30 58.333h-3.333a3.333 3.333 0 0 0-3.334 3.334v10A3.333 3.333 0 0 0 26.667 75H30a3.333 3.333 0 0 0 3.333-3.333v-10A3.333 3.333 0 0 0 30 58.333Zm-3.333 13.334v-10H30v10h-3.333ZM73.333 58.333H70a3.333 3.333 0 0 0-3.334 3.334v10A3.333 3.333 0 0 0 70 75h3.333a3.333 3.333 0 0 0 3.334-3.333v-10a3.333 3.333 0 0 0-3.334-3.334ZM70 71.667v-10h3.333v10H70ZM80 61.667v10A3.333 3.333 0 0 0 83.333 75h3.333A3.333 3.333 0 0 0 90 71.667v-10a3.333 3.333 0 0 0-3.334-3.334h-3.333A3.333 3.333 0 0 0 80 61.667Zm6.666 10h-3.333v-10h3.333v10ZM26.666 31.667h-3.333A3.333 3.333 0 0 0 20 35v10a3.333 3.333 0 0 0 3.333 3.333h3.333A3.333 3.333 0 0 0 30 45V35a3.333 3.333 0 0 0-3.334-3.333ZM23.333 45V35h3.333v10h-3.333ZM40 31.667h-3.333A3.333 3.333 0 0 0 33.333 35v10a3.333 3.333 0 0 0 3.334 3.333H40A3.333 3.333 0 0 0 43.333 45V35A3.333 3.333 0 0 0 40 31.667ZM36.667 45V35H40v10h-3.333ZM63.333 31.667H60A3.333 3.333 0 0 0 56.666 35v10A3.333 3.333 0 0 0 60 48.333h3.333A3.333 3.333 0 0 0 66.667 45V35a3.333 3.333 0 0 0-3.334-3.333ZM60 45V35h3.333v10H60ZM76.667 31.667h-3.334A3.333 3.333 0 0 0 70 35v10a3.333 3.333 0 0 0 3.333 3.333h3.334A3.333 3.333 0 0 0 80 45V35a3.333 3.333 0 0 0-3.333-3.333ZM73.333 45V35h3.334v10h-3.334Z"/></g><defs><clipPath id="a"><path fill="#fff" d="M0 0h100v100H0z"/></clipPath></defs></svg>
